X: 15
T: Hayward's Schottische
C: Trad arr. P J Headford
S: tradtunes 2016-4-26 (Taz taztarry:btinternet.com)
M: 4/4
L: 1/8
%Q: 1/4=100
K: G
(3d^c=c |\
B2 (3BAG A2 (3AGF | .G2 D2  D>G B>d | .e2 F2 F>A c>f | .g2 d2 d2 (3d^c=c |
B2 (3BAG A2 (3AGF | .G2 D2  D>G B>d | .e2 F2 F>c B>A |1 G4 :|
K:D
|: (3d^c=c |\
B>A B>c d>c d>e | fz A4 B>A | G>F G>A B>E F>G | A4 z dc>=c |
B>A B>c d>c d>e | fz A2 g2 f2 | f>e e>d d>c f>e | d4 :|
